**kern	**kern	**dynam
*part1	*part1	*part1
*staff2	*staff1	*
*I"Piano	*	*
*clefF4	*clefG2	*
*k[f#c#g#d#a#]	*k[f#c#g#d#a#]	*
=1	=1	=1
*^	*^	*
4BBB	2.BBB	4ff#	8bL	.
.	.	.	8f#	.
4FF#	.	4dd#	8f#	.
.	.	.	8d#	.
4BB	.	4b	8d#	.
.	.	.	8BJ	.
=	=	=	=	=
4BBB	2.BBB	4ff#	8bL	.
.	.	.	8f#	.
4FF#	.	4dd#	8f#	.
.	.	.	8d#	.
4BB	.	4b	8d#	.
.	.	.	8BJ	.
=	=	=	=	=
4FF#	2.FF#	4f# 4cc#	8eL	.
.	.	.	8A#	.
4C#	.	4f# 4b	8e	.
.	.	.	8B	.
4F#	.	4f# 4a#	8e	.
.	.	.	8c#J	.
=	=	=	=	=
4FF#	2.FF#	4f# 4cc#	8eL	.
.	.	.	8A#	.
4C#	.	4f# 4b	8e	.
.	.	.	8B	.
4F#	.	4f# 4a#	8e	.
.	.	.	8c#J	.
*	*	*v	*v	*
=	=	=	=
4An	2.BB	8BL 8d# 8f# 8b	f
.	.	8B	.
4A	.	8d# 8f#	.
.	.	8B	.
4G#	.	8c##X 8e#X	.
.	.	8BJ	.
=	=	=	=
4An	2.BB	8d#L 8f#	f
.	.	8B	.
4A	.	8d# 8f#	.
.	.	8B	.
4G#	.	8c##X 8e#X	.
.	.	8BJ	.
=	=	=	=
4An	2.BB	8d#L 8f#	f
.	.	8B	.
4A	.	8d# 8f#	.
.	.	8B	.
4G#	.	8c##X 8e#X	.
.	.	8BJ	.
*v	*v	*	*
=	=	=
*-	*-	*-
!!!system-decoration: {(s1,s2)}
